icons/desktop/16/svg/memories-16.svg

<svg width="16" height="16" viewBox="0 0 16 16" fill="none" xmlns="http://www.w3.org/2000/svg">
<path d="M6.86523 4.66113C7.09223 4.08613 7.90584 4.08613 8.13184 4.66113L8.5918 5.83008L9.81738 6.3457C10.0792 6.44876 10.248 6.69855 10.248 6.98047C10.2479 7.26218 10.0791 7.51125 9.81641 7.61426L8.64941 8.0752L8.13184 9.29883C8.02884 9.56081 7.78003 9.73045 7.49805 9.73047L7.5 9.73145C7.218 9.73145 6.96921 9.5618 6.86621 9.2998L6.40625 8.13086L5.18066 7.61523C4.91892 7.51224 4.75018 7.26318 4.75 6.98145C4.75 6.69952 4.91876 6.44973 5.18164 6.34668L6.34863 5.88574L6.40527 5.83008L6.86523 4.66113Z" fill="black"/>
<path fill-rule="evenodd" clip-rule="evenodd" d="M7.5 1C8.70225 1 10.0776 1.06306 11.5859 1.24609C12.9666 1.41316 13.9998 2.59662 14 3.97852V10.248C14 10.8356 13.8138 11.379 13.5 11.8262V14.0303C13.5418 14.0234 13.584 14.0178 13.626 14.0107C14.0344 13.9422 14.4207 14.2175 14.4893 14.626C14.5578 15.0344 14.2825 15.4207 13.874 15.4893C11.5703 15.8761 9.49633 16 7.75 16C5.92913 16 4.27175 15.8649 2.81348 15.6689C1.77228 15.5285 1 14.6419 1 13.5938C1 13.5745 1.00241 13.5553 1.00293 13.5361C1.00157 13.5177 1.00001 13.4992 1 13.4805V3.97559C1.00021 2.56453 2.06262 1.40702 3.44531 1.24219C4.66684 1.09603 6.02558 1 7.5 1ZM12 12.8926C11.7618 12.9598 11.511 12.9982 11.251 12.998L11.25 12.9971C10.4201 12.9966 9.48268 12.9969 8.75293 12.9971C8.38815 12.9971 8.07567 12.9976 7.85449 12.998C7.74383 12.9983 7.65659 12.9987 7.59766 12.999C7.57743 12.9991 7.5611 12.9989 7.54883 12.999C7.54394 12.9994 7.54025 12.9999 7.53809 13C7.52033 13.0011 7.50217 13.0016 7.49023 13.002C7.46376 13.0027 7.42903 13.0025 7.38965 13.0029C7.3092 13.0039 7.19419 13.0053 7.05371 13.0059C6.77172 13.007 6.37849 13.0069 5.93359 13.0068C5.0434 13.0067 3.94053 13.0049 3.09082 13.0029C2.76516 13.0021 2.50013 13.2657 2.5 13.5938C2.5 13.8933 2.71832 14.1427 3.0127 14.1826C4.41235 14.3707 6.00299 14.5 7.75 14.5C9.00378 14.5 10.4336 14.4339 12 14.2451V12.8926ZM7.82031 12.9268C7.82313 12.9255 7.82645 12.925 7.8291 12.9238L7.83008 12.9219C7.82677 12.9235 7.82357 12.9252 7.82031 12.9268ZM7.15625 11.584C7.11464 11.6072 7.01453 11.6783 6.95996 11.7295C6.88417 11.8221 6.76881 12.0832 6.75 12.25C6.80782 11.9637 7.05964 11.6473 7.16602 11.5791C7.1628 11.5807 7.15951 11.5823 7.15625 11.584ZM7.5 2.5C6.44289 2.5 5.44783 2.55189 4.52344 2.63672L3.62305 2.73145C2.97601 2.80858 2.50021 3.34301 2.5 3.97559V11.5879C2.68854 11.5326 2.88801 11.5024 3.09473 11.5029C3.94398 11.5049 5.04506 11.5067 5.93359 11.5068C6.37779 11.5069 6.76807 11.507 7.04688 11.5059C7.18653 11.5053 7.29689 11.5048 7.37109 11.5039C7.40506 11.5035 7.42882 11.5023 7.44336 11.502C7.45035 11.5014 7.45522 11.5011 7.45703 11.501C7.4698 11.5002 7.48058 11.5001 7.48438 11.5C7.49429 11.4997 7.50498 11.4991 7.51367 11.499C7.53237 11.4988 7.55824 11.4992 7.58887 11.499C7.65076 11.4987 7.74047 11.4983 7.85156 11.498C8.07424 11.4976 8.38795 11.4971 8.75293 11.4971C9.48351 11.4969 10.422 11.4975 11.252 11.498C11.9417 11.4985 12.5 10.9401 12.5 10.248V3.97852C12.4998 3.34693 12.0251 2.81039 11.4062 2.73535C9.96496 2.56046 8.64953 2.5 7.5 2.5ZM7.31348 11.5234C7.29899 11.5271 7.25239 11.5409 7.19336 11.5674C7.23965 11.5485 7.29827 11.5279 7.32227 11.5215C7.31942 11.5222 7.3164 11.5227 7.31348 11.5234Z" fill="black"/>
</svg>

<!-- This Source Code Form is subject to the terms of the Mozilla Public
   - License, v. 2.0. If a copy of the MPL was not distributed with this
   - file, You can obtain one at http://mozilla.org/MPL/2.0/. -->
<svg xmlns="http://www.w3.org/2000/svg" width="16" height="16" fill="context-fill" fill-opacity="context-fill-opacity" viewBox="0 0 16 16">
    <path d="M6.865 4.661a.68.68 0 0 1 1.267 0l.46 1.17 1.225.515c.262.103.431.353.431.634s-.169.531-.432.634l-1.167.461L8.132 9.3a.68.68 0 0 1-.634.431l.002.001a.68.68 0 0 1-.634-.431l-.46-1.17-1.225-.515a.68.68 0 0 1-.431-.634c0-.281.169-.531.432-.634l1.167-.461.056-.056z" />
    <path fill-rule="evenodd" d="M7.5 1c1.202 0 2.578.063 4.086.246A2.755 2.755 0 0 1 14 3.98v6.269c0 .588-.186 1.131-.5 1.578v2.204q.063-.01.126-.02a.75.75 0 1 1 .248 1.48 37 37 0 0 1-11.06.179A2.09 2.09 0 0 1 1 13.594q0-.03.003-.058Q1 13.51 1 13.48V3.976a2.76 2.76 0 0 1 2.445-2.734A34 34 0 0 1 7.5 1M12 12.893a2.8 2.8 0 0 1-.749.105H8.753l-1.155.001h-.05l-.01.001-.048.002h-.1c-.08.002-.196.003-.336.004h-1.12c-.89 0-1.993-.001-2.843-.003a.59.59 0 0 0-.591.59c0 .3.218.55.513.59a35.6 35.6 0 0 0 8.987.062zm-4.18.034q.004-.002.01-.003v-.002zm-.664-1.343a1.3 1.3 0 0 0-.196.146 1.3 1.3 0 0 0-.21.52c.058-.286.31-.603.416-.67q-.004 0-.01.004M7.5 2.5c-1.057 0-2.052.052-2.977.137l-.9.094A1.26 1.26 0 0 0 2.5 3.976v7.612c.189-.055.388-.086.595-.085.849.002 1.95.004 2.839.004l1.113-.001.324-.002.072-.002.014-.001.027-.001.03-.001h.075a120 120 0 0 1 1.164-.002l2.499.001c.69 0 1.248-.558 1.248-1.25v-6.27c0-.631-.475-1.168-1.094-1.243A32 32 0 0 0 7.5 2.5m-.187 9.023.01-.002z" clip-rule="evenodd" />
</svg>
